lib/preview/nrk-logo-preview-nrk-trafikk.svg

<svg width="91" height="14" viewBox="0 0 91 14" fill="none" xmlns="http://www.w3.org/2000/svg">
<path d="M6.10352e-05 12.9968V0.997916H3.93725V12.9968H6.10352e-05ZM9.29387 2.90761L11.5581 12.9968H7.24923L4.54555 0.997916H6.96224C7.51641 0.990724 8.05412 1.18607 8.47456 1.54722C8.89568 1.89321 9.18501 2.37352 9.29387 2.90761ZM12.1496 12.9968V0.997916H16.0868V12.9968H12.1496ZM19.0605 5.56093C18.6363 5.56506 18.2188 5.45406 17.8526 5.23979C17.4913 5.03095 17.1912 4.73079 16.9823 4.36942C16.7678 4.00316 16.6568 3.58559 16.661 3.16114C16.6562 2.73929 16.7673 2.32421 16.9823 1.96125C17.1934 1.60382 17.4932 1.30692 17.8526 1.09935C18.2189 0.885329 18.6363 0.774341 19.0605 0.77821C19.4823 0.773668 19.8972 0.884755 20.2603 1.09935C20.6161 1.30874 20.9127 1.60539 21.1221 1.96125C21.3369 2.32431 21.448 2.73932 21.4434 3.16114C21.4473 3.58555 21.3363 4.00305 21.1221 4.36942C20.9149 4.7292 20.618 5.02911 20.2603 5.23979C19.8972 5.4548 19.4819 5.56592 19.06 5.56093H19.0605ZM22.0517 12.9968V0.997916H25.9892V12.9968H22.0517ZM30.9738 7.55506C30.9849 7.5667 31.0693 7.70471 31.2272 7.9691C31.3851 8.23349 31.5907 8.57151 31.844 8.98312C32.0975 9.39453 32.3649 9.83108 32.6464 10.2928C32.9278 10.7546 33.1927 11.1912 33.4409 11.6026C33.6882 12.014 33.9698 12.4788 34.2858 12.9968H29.9599C29.6893 12.5574 29.4442 12.1603 29.2245 11.8054C29.0049 11.4505 28.7714 11.0674 28.5239 10.6562C28.2759 10.2453 28.0307 9.84536 27.7883 9.45629C27.5459 9.06722 27.3376 8.72644 27.1633 8.43388C26.9883 8.14114 26.8671 7.94395 26.7997 7.84236C26.6326 7.59027 26.5337 7.29912 26.5127 6.99737C26.5295 6.70776 26.6227 6.4278 26.7828 6.18594C26.8504 6.07327 26.9743 5.87325 27.1546 5.58596C27.3348 5.29866 27.5461 4.95788 27.7883 4.56355C28.0305 4.16922 28.2757 3.76643 28.5239 3.3552C28.7721 2.94397 29.0056 2.55806 29.2245 2.19753C29.4446 1.83738 29.6897 1.43741 29.9599 0.997641H34.2858L30.9397 6.45632C30.8361 6.61839 30.7778 6.80517 30.7707 6.99737C30.7818 7.19915 30.8523 7.39314 30.9732 7.55506H30.9738Z" fill="white"/>
<path d="M48.4037 1.05073H38.8572V2.53649H42.7469V13.0381H44.5304V2.53649H48.4035L48.4037 1.05073Z" fill="white"/>
<path d="M51.8861 4.36848C51.5685 4.45337 51.2651 4.58421 50.9857 4.7568C50.696 4.93667 50.4282 5.14912 50.1874 5.38994C50.1472 5.4299 50.1081 5.47438 50.0685 5.51631V4.25877L48.3358 4.51199V13.0382H50.0685V6.65961C50.1972 6.57023 50.3304 6.48749 50.4677 6.41171C50.6375 6.31849 50.8132 6.23659 50.994 6.16659C51.1698 6.09905 51.3479 6.03999 51.5294 5.98962C51.7158 5.93784 51.9061 5.90105 52.0984 5.87959C52.3043 5.85698 52.5116 5.85131 52.7184 5.86269L52.9222 4.27563C52.5741 4.25091 52.2242 4.28225 51.8861 4.36848Z" fill="white"/>
<path d="M61.6365 11.9743C61.5124 11.9857 61.3873 11.9671 61.2719 11.92C61.1566 11.873 61.0543 11.7989 60.974 11.7042C60.8165 11.4336 60.751 11.1198 60.7872 10.8093L60.8211 7.3313C60.8249 6.96669 60.7792 6.60324 60.6852 6.25076C60.6028 5.94162 60.4647 5.64987 60.2776 5.38968C60.0886 5.13525 59.8485 4.92255 59.5726 4.765C59.2521 4.58398 58.9055 4.45301 58.545 4.37668C58.1041 4.28227 57.6539 4.23706 57.2029 4.24189C56.8452 4.24165 56.4879 4.26411 56.1331 4.30915C55.7977 4.35105 55.4656 4.41595 55.1391 4.50332C54.8365 4.58489 54.5388 4.68351 54.2475 4.79877L54.0434 6.23386C54.3265 6.13256 54.5955 6.04817 54.8503 5.98064C55.1051 5.9131 55.3514 5.8568 55.5892 5.81177C55.8222 5.76738 56.0576 5.73648 56.2942 5.7192C56.5261 5.70213 56.7556 5.69361 56.9824 5.69361C57.3288 5.68627 57.6746 5.72601 58.0101 5.81177C58.2548 5.87277 58.4798 5.9948 58.6638 6.16633C58.8277 6.33328 58.9448 6.5399 59.0036 6.7657C59.0763 7.0441 59.1107 7.33102 59.1058 7.6186L59.1038 8.04069L57.1181 8.17435C56.4389 8.19332 55.7699 8.34238 55.1476 8.61334C54.682 8.8159 54.2799 9.13962 53.984 9.55036C53.7329 9.91592 53.5996 10.3487 53.6018 10.7913C53.5986 11.2066 53.7009 11.616 53.899 11.9816C54.1069 12.3572 54.4195 12.665 54.7993 12.868C55.2627 13.1076 55.7806 13.2239 56.3027 13.2057C56.7919 13.2168 57.2789 13.1366 57.7383 12.9693C58.1354 12.8149 58.4987 12.5855 58.8082 12.2939C58.9257 12.1819 59.0372 12.0639 59.1423 11.9402C59.1754 12.115 59.2376 12.283 59.3263 12.4375C59.4776 12.696 59.7105 12.8977 59.9888 13.0115C60.2964 13.1343 60.6256 13.1946 60.957 13.1888C61.0589 13.1888 61.1581 13.186 61.2546 13.1803C61.349 13.1749 61.4427 13.1608 61.5346 13.1381C61.6252 13.1156 61.707 13.0959 61.7809 13.079C61.8474 13.0643 61.9127 13.0445 61.9762 13.02L62.1633 11.8888C62.0694 11.9206 61.9726 11.9432 61.8743 11.9563C61.7955 11.9673 61.7161 11.9733 61.6365 11.9743ZM59.0905 10.9486C59.004 11.0452 58.9093 11.1341 58.8074 11.2145C58.6232 11.3592 58.4238 11.4837 58.2128 11.586C58.0027 11.6876 57.78 11.7614 57.5506 11.8055C57.3127 11.8511 57.071 11.8737 56.8287 11.873C56.5518 11.8809 56.2764 11.829 56.0216 11.721C55.8143 11.6317 55.6396 11.4815 55.5207 11.2905C55.4029 11.0882 55.3441 10.8573 55.3508 10.6236C55.3344 10.3422 55.4121 10.0632 55.5717 9.83007C55.7566 9.61552 56.0072 9.46724 56.2851 9.40798C56.7191 9.30649 57.1645 9.2611 57.6101 9.27292H59.0976L59.0905 10.9486Z" fill="white"/>
<path d="M68.0317 0.426104C67.8562 0.392337 67.6778 0.367006 67.4967 0.350122C67.3155 0.333239 67.1229 0.324772 66.9191 0.324772C66.55 0.32242 66.183 0.379463 65.8323 0.493635C65.4988 0.602631 65.1941 0.784344 64.9404 1.02547C64.6778 1.27945 64.4749 1.58785 64.3459 1.92873C64.1957 2.33966 64.1237 2.77476 64.1336 3.21187V4.4275H62.8596V5.7444H64.1336V13.0381H65.8662V5.7444H68.2443V4.4275H65.8662V3.02617C65.8625 2.83356 65.8942 2.64189 65.9597 2.46057C66.0151 2.30736 66.1051 2.16875 66.2227 2.05535C66.3458 1.9429 66.4945 1.86181 66.6561 1.81899C66.8468 1.76644 67.044 1.74086 67.2419 1.743C67.3781 1.743 67.5077 1.74893 67.6328 1.7599C67.758 1.77088 67.8789 1.78802 67.998 1.81054C68.1172 1.83305 68.2299 1.85556 68.3378 1.87807C68.4337 1.89706 68.5276 1.92534 68.618 1.9625L68.5501 0.561167C68.3805 0.504907 68.2073 0.459792 68.0317 0.426104Z" fill="white"/>
<path d="M69.9256 13.0382H71.6582V4.25877L69.9256 4.51199V13.0382Z" fill="white"/>
<path d="M71.4119 0.721413C71.2356 0.614336 71.0325 0.558767 70.8259 0.561035C70.6167 0.559362 70.411 0.61483 70.2313 0.721413C70.0542 0.82455 69.9054 0.969531 69.7982 1.1435C69.6903 1.3187 69.6344 1.52062 69.6368 1.72601C69.635 1.93397 69.6908 2.13841 69.7982 2.31692C69.9021 2.49352 70.0516 2.63926 70.2313 2.73901C70.4127 2.84044 70.6178 2.89281 70.8259 2.89094C71.0314 2.89337 71.2338 2.84092 71.4119 2.73901C71.5867 2.6385 71.7305 2.49258 71.8281 2.31692C71.9301 2.13661 71.9829 1.93287 71.981 1.72601C71.9835 1.52174 71.9307 1.32054 71.8281 1.1435C71.7272 0.970351 71.5841 0.825204 71.4119 0.721413Z" fill="white"/>
<path d="M81.6973 4.42745H79.574L76.6673 7.60157H76.0408V0.29095L74.3082 0.544211V13.0381H76.0408V8.9016H76.0691L79.5398 13.0381H81.782L77.6616 8.42321L81.6973 4.42745Z" fill="white"/>
<path d="M86.5796 8.37882L90.6153 4.38301H88.492L85.5853 7.55714H84.9587V0.246826L83.2261 0.500087V12.9939H84.9587V8.85744H84.9871L88.4577 12.9939H90.7L86.5796 8.37882Z" fill="white"/>
</svg>

<svg xmlns="http://www.w3.org/2000/svg" viewBox="0 0 91 14"><path fill="#fff" d="M0 12.997v-12h3.937v12H0Zm9.294-10.09 2.264 10.09H7.25l-2.703-12h2.416a2.276 2.276 0 0 1 1.513.55c.42.346.71.827.819 1.36Zm2.856 10.09v-12h3.937v12H12.15Zm6.91-7.436a2.382 2.382 0 0 1-2.4-2.4 2.303 2.303 0 0 1 .322-1.2A2.412 2.412 0 0 1 20.26 1.1c.356.21.653.506.862.862.215.363.326.778.321 1.2A2.4 2.4 0 0 1 20.26 5.24a2.303 2.303 0 0 1-1.2.32Zm2.992 7.436v-12h3.937v12h-3.937Zm8.922-5.442c.01.012.095.15.253.414s.364.603.617 1.014a326.382 326.382 0 0 1 1.597 2.62c.247.411.529.876.845 1.394H29.96c-.27-.44-.516-.837-.736-1.192-.22-.354-.453-.738-.7-1.149-.248-.41-.493-.81-.736-1.2-.242-.389-.45-.73-.625-1.022-.175-.293-.296-.49-.363-.592a1.75 1.75 0 0 1-.287-.845c.016-.29.11-.57.27-.811.067-.113.191-.313.372-.6a182.106 182.106 0 0 0 1.37-2.23c.247-.412.48-.798.7-1.158l.735-1.2h4.326L30.94 6.456a1.078 1.078 0 0 0-.17.541c.012.202.082.396.203.558ZM48.404 1.05h-9.547v1.486h3.89v10.502h1.783V2.536h3.873V1.051ZM51.886 4.368a3.368 3.368 0 0 0-.9.389c-.29.18-.558.392-.799.633-.04.04-.079.084-.118.126V4.26l-1.733.253v8.526h1.733V6.66a4.378 4.378 0 0 1 .925-.493c.176-.068.354-.127.535-.177a3.63 3.63 0 0 1 1.19-.127l.203-1.587a3.259 3.259 0 0 0-1.036.092ZM61.636 11.974a.777.777 0 0 1-.662-.27 1.446 1.446 0 0 1-.187-.895l.034-3.478a4.03 4.03 0 0 0-.136-1.08 2.64 2.64 0 0 0-.407-.861 2.297 2.297 0 0 0-.705-.625 3.61 3.61 0 0 0-1.028-.388 6.098 6.098 0 0 0-1.342-.135 8.45 8.45 0 0 0-1.07.067 7.388 7.388 0 0 0-.994.194c-.303.082-.6.18-.892.296l-.204 1.435a10.033 10.033 0 0 1 1.546-.422c.233-.045.469-.076.705-.093.232-.017.462-.025.688-.025.347-.008.693.032 1.028.118.245.06.47.183.654.354.164.167.28.374.34.6.072.278.107.565.102.853l-.002.422-1.986.133a5.307 5.307 0 0 0-1.97.44 2.82 2.82 0 0 0-1.164.936 2.172 2.172 0 0 0-.382 1.241c-.003.416.099.825.297 1.19.208.376.52.684.9.887.464.24.982.356 1.504.338.489.01.976-.07 1.435-.237.397-.154.76-.383 1.07-.675.118-.112.23-.23.334-.354.033.175.096.343.184.498.152.258.385.46.663.573.307.123.637.184.968.178.102 0 .201-.003.298-.009.094-.005.188-.02.28-.042l.246-.059c.066-.015.132-.035.195-.059l.187-1.131c-.094.032-.19.054-.289.067a1.892 1.892 0 0 1-.238.018ZM59.09 10.95a2.254 2.254 0 0 1-.283.265c-.184.145-.383.27-.594.372-.21.102-.433.175-.662.22-.238.045-.48.068-.722.067a1.928 1.928 0 0 1-.807-.152 1.104 1.104 0 0 1-.501-.43 1.254 1.254 0 0 1-.17-.667c-.017-.282.061-.56.22-.794a1.3 1.3 0 0 1 .714-.422c.434-.102.88-.147 1.325-.135h1.488l-.008 1.676ZM68.032.426a5.564 5.564 0 0 0-1.113-.101 3.44 3.44 0 0 0-1.087.169c-.333.109-.638.29-.892.531a2.476 2.476 0 0 0-.594.904c-.15.41-.222.846-.212 1.283v1.216H62.86v1.316h1.274v7.294h1.732V5.744h2.378V4.428h-2.378V3.026a1.576 1.576 0 0 1 .094-.565c.055-.154.145-.292.263-.406.123-.112.272-.193.433-.236.19-.053.388-.078.586-.076.136 0 .266.006.39.017.126.01.247.028.366.05l.34.068c.096.02.19.047.28.085L68.55.56a4.1 4.1 0 0 0-.518-.135ZM69.926 13.038h1.732v-8.78l-1.732.254v8.526ZM71.412.721a1.106 1.106 0 0 0-.586-.16 1.148 1.148 0 0 0-.595.16 1.244 1.244 0 0 0-.433.422 1.086 1.086 0 0 0-.161.583 1.15 1.15 0 0 0 .595 1.013c.18.101.386.154.594.152.205.002.408-.05.586-.152.175-.1.319-.246.416-.422.102-.18.155-.384.153-.591a1.134 1.134 0 0 0-.153-.583 1.196 1.196 0 0 0-.416-.422ZM81.697 4.427h-2.123l-2.907 3.175h-.626V.29l-1.733.253v12.494h1.733V8.902h.028l3.47 4.136h2.243l-4.12-4.615 4.035-3.996ZM86.58 8.379l4.035-3.996h-2.123l-2.907 3.174h-.626V.247L83.226.5v12.494h1.733V8.857h.028l3.47 4.137H90.7l-4.12-4.615Z"/></svg>
